icons/square/48/towerfall-ascension.svg

<svg version="1.1" viewBox="0 0 48 48" xmlns="http://www.w3.org/2000/svg">
 <defs>
  <linearGradient id="bg" x2="0" y1="1" y2="47" gradientUnits="userSpaceOnUse">
   <stop stop-color="#eee5aa" offset="0"/>
   <stop stop-color="#ebe099" offset="1"/>
  </linearGradient>
 </defs>
 <path d="m1 43v0.25c0 2.216 1.784 4 4 4h38c2.216 0 4-1.784 4-4v-0.25c0 2.216-1.784 4-4 4h-38c-2.216 0-4-1.784-4-4zm0 0.5v0.5c0 2.216 1.784 4 4 4h38c2.216 0 4-1.784 4-4v-0.5c0 2.216-1.784 4-4 4h-38c-2.216 0-4-1.784-4-4z" opacity=".02"/>
 <path d="m1 43.25v0.25c0 2.216 1.784 4 4 4h38c2.216 0 4-1.784 4-4v-0.25c0 2.216-1.784 4-4 4h-38c-2.216 0-4-1.784-4-4z" opacity=".05"/>
 <path d="m1 43v0.25c0 2.216 1.784 4 4 4h38c2.216 0 4-1.784 4-4v-0.25c0 2.216-1.784 4-4 4h-38c-2.216 0-4-1.784-4-4z" opacity=".1"/>
 <rect x="1" y="1" width="46" height="46" rx="4" fill="url(#bg)"/>
 <path d="m1 39v4c0 2.216 1.784 4 4 4h38c2.216 0 4-1.784 4-4v-4c0 2.216-1.784 4-4 4h-38c-2.216 0-4-1.784-4-4z" opacity=".1"/>
 <path d="m12 12 8 2-2 2 11 11 3-1 4 4-3 1 1 1-2 2-1-1-1 3-4-4 1-3-11-11-2 2zm24 0-2 8-2-2-11 11 1 3-4 4-1-3-1 1-2-2 1-1-3-1 4-4 3 1 11-11-2-2z" opacity=".1"/>
 <g transform="translate(0 -1)">
  <path d="m29 27 3-1 4 4-3 1-2 2-1 3-4-4 1-3z" fill="#c42"/>
  <path d="m14 16 2-2 18 18-2 2z" fill="#532"/>
  <path d="m12 12 8 2-6 6z" fill="#888"/>
  <g transform="rotate(90 24 24)">
   <path d="m29 27 3-1 4 4-3 1-2 2-1 3-4-4 1-3z" fill="#c42"/>
   <path d="m16 14 18 18-2 2-18-18z" fill="#532"/>
   <path d="m12 12 8 2-6 6z" fill="#888"/>
  </g>
 </g>
</svg>

<svg xmlns="http://www.w3.org/2000/svg" version="1.1" viewBox="0 0 48 48">
	<defs>
		<linearGradient id="bg" gradientUnits="userSpaceOnUse" x1="0" x2="0" y1="1" y2="47">
			<stop offset="0" stop-color="#eee5aa"/>
			<stop offset="1" stop-color="#ebe099"/>
		</linearGradient>
	</defs>
	<path opacity=".02" d="m1 43v0.25c0 2.216 1.784 4 4 4h38c2.216 0 4-1.784 4-4v-0.25c0 2.216-1.784 4-4 4h-38c-2.216 0-4-1.784-4-4zm0 0.5v0.5c0 2.216 1.784 4 4 4h38c2.216 0 4-1.784 4-4v-0.5c0 2.216-1.784 4-4 4h-38c-2.216 0-4-1.784-4-4z"/>
	<path opacity=".05" d="m1 43.25v0.25c0 2.216 1.784 4 4 4h38c2.216 0 4-1.784 4-4v-0.25c0 2.216-1.784 4-4 4h-38c-2.216 0-4-1.784-4-4z"/>
	<path opacity=".1" d="m1 43v0.25c0 2.216 1.784 4 4 4h38c2.216 0 4-1.784 4-4v-0.25c0 2.216-1.784 4-4 4h-38c-2.216 0-4-1.784-4-4z"/>
	<rect fill="url(#bg)" rx="4" height="46" width="46" y="1" x="1"/>
	<path opacity=".1" d="m1 39v4c0 2.216 1.784 4 4 4h38c2.216 0 4-1.784 4-4v-4c0 2.216-1.784 4-4 4h-38c-2.216 0-4-1.784-4-4z"/>
	<path d="M 12,12 20,14 18,16 29,27 32,26 36,30 33,31 34,32 32,34 31,33 30,36 26,32 27,29 16,18 14,20 z M 36,12 34,20 32,18 21,29 22,32 18,36 17,33 16,34 14,32 15,31 12,30 16,26 19,27 30,16 28,14 z" opacity=".1"/>
	<g transform="translate(0 -1)">
		<path d="m 29,27 3,-1 4,4 -3,1 -2,2 -1,3 -4,-4 1,-3 z" fill="#c42"/>
		<path d="M 14,16 16,14 34,32 32,34 z" fill="#532"/>
		<path d="M 12,12 20,14 14,20 z" fill="#888"/>
		<g transform="rotate(90 24 24)">
			<path d="m 29,27 3,-1 4,4 -3,1 -2,2 -1,3 -4,-4 1,-3 z" fill="#c42"/>
			<path d="M 16,14 34,32 32,34 14,16 z" fill="#532"/>
			<path d="M 12,12 20,14 14,20 z" fill="#888"/>
		</g>
	</g>
</svg>
